X:263
T:Song for a Young Queen
C:Chris Thile
N:TablEdited by Steve Terregino
L:1/8
Q:1/4=250
M:6/8
K:A
z6 | age fAD | fec dB,F | dcA BG,E | eA,E cA,E | age fAD | fec dB,F | dcA BG,E | 
eA,E AA,E | age fAD | fec dB,F | dcA BG,E | eA,E cA,E | e^A,=F dA,F | e^A,=F dF=c | 
A^A,=G A=C=F | A=C=F AFA | =F=cF d^A,F | e^A,=F =fFe | d=F=c AF=C | A=F=C ^CEA | 
M:3/8
A=GF | 
M:6/8
[A3D3] dDD | ef2 dDD | e=f2 =c2D | d^d=d =c^AA | ADD dD=g | [fD]ed F=GA | ^AD=G, AA/=c/=A | 
^A2D ADD | ADD dDD | ef2 dDD | e=f2 =c2D | d^d=d =c^AA | ADD dD=g | [fD]ed F=GA | 
^AD=G, AA/=c/=A | ^A2D ADD | DAd efd | B,Fd fed | =F=ca c=fd | ^d=c=d ^AcA | ADd efd | 
B,FA fed | ^A,=Fd e=f=g | a=c=F ^A,=CE | DAd efd | B,Fd fed | =F=ca e=fd | ^d=c=d ^AcA | 
ADd efd | B,FA fed | ^A,=Fd e=f=g | a=c=F ^A,Fc | a=c=F ^A,=C[bd] | =C[bd]C [bd]C[bd] | 
[DD]ee c'Dc' | Dd'a b=c'd' | e'=c'a e=cB | AE=C B,A,B, | =C=Gd bCG | d=c'=g e=cA | 
[=g^A]dA eA=f | A=gA aAb | DAe c'DA | Dd'a b=c'd' | e'=c'a e=cB | AE=C B,A,B, | 
=C=Gd bCG | d=c'=g e=cA | ^AdA eA=f | A=gA aAb | =G,=GA c'Ac' | =G,=GA c'Ac' | 
=G,=GA c'Ac' | DDA d'Ad' | =G,=GA c'2b | =G,=GA a2=g | DAf edA | =GFD CB,A, | 
=G,DA BG,D | Bc=G, Dcd | dDd f=G,=g | fed A=GF | F=G=G, DBd | =G,Df aG,f | [=g=G,]bG, g[bG,]d' | 
[c'6A6D6] | z3 [d'3=g3] | age fAD | fAD DAf | age fDA | fAD DAf | age fAD | fec dDd | 
dDD dDD | age fAD | fec dDD | dcA BDD | eDD BcD | c'bg aAD | age fAD | fec dDc | 
zBA FAA | "Repeated section"z6 | z6 | z6 | z6 | DAd efd | B,Fd fed | =F=ca c=fd | 
^d=c=d ^AcA | DAd efd | B,Fd fed | ^A,=Fd e=f=g | a=c=F ^A,=CE | DAd efd | B,Fd fed | 
=F=ca c=fd | ^d=c=d ^AcA | DAd efd | B,Fd fed | ^A,[d=F]A, [dF]A,[dFA,] | ^A,[^ad=F]A, [adF]A,[adF] | 
[^ad=F^A,][adF][adFA,] [adFA,][=c'e=G=C][c'/e/G/][c'/e/G/C/] | [=c'e=G=C][c'eG][c'eGC] [c'eG][c'eGC][c'eG] | 
DAd' a=gf | dAA B=cB | =cde de=g | a=ge d=cA | B=cA =GDE | =cEd EeE | d=c^A =G=AG | 
AA=G FDE | DA,=G, A,FA, | =G,A,A A,G,A, | =cED EdE | DEe EDE | =fe=c =Gcd | e=g=c' d'e'c' | 
d'=c'^a =gac' | d'bc' d'e'=g' | "Repeated section"f'6 | z6 | z6 | z6 | z3 [a3d3] | 
age fAD | fAD DAf | age fDA | fAD DAf | age fAD | fec dDd | dDD dDD | age fAD | 
fec dDD | dcA BDD | eDD BcD | c'bg aAD | age fAD | fec dDc | zBA FAA | age fAD | 
fec dB,F | dcA BG,E | eA,E cA,E | age fAD | fec dB,F | dcA BG,E | eA,E AA,E | 
age fAD | fec dB,F | dcA BG,E | eA,E cA,E | e^A,F cA,F | eB,F dB,F | f=CG ^dCG | 
M:3/8
f=CG | 
M:6/8
e^de fgb | c'^d'e' d'c'b | fg2 bfe | efA ee^d | c^de fgb | c'^d'e' d'c'b | fgc' bfe | 
eff eee | c^de fgb | c'^d'e' d'c'b | efA bfe | efA eA^d | ^ddc dcB | AeF AeA | 
A2A e(3ABc | BeF GcB | GcB GcB | GBc GBc | ^dBc def | gbg f^dg | f^de dcB | c^de dcB | 
FGc BFE | EF2 e2e | E^DE FGB | c^de dcB | FG2 eFE | EF2 eE^D | E^DC DCB, | A,CE Ace | 
abc' aba | gAa gec | eee [e2^d2]e | "Repeated section"z6 | z6 | z6 | z6 | age fAD | 
fec dB,F | dcA BG,E | eA,E cA,E | age fAD | fec dB,F | dcA BG,E | eA,E AA,E | 
age fAD | fec dB,F | dcA BG,E | eA,E cA,E | e^A,=F dA,F | e^A,=F dF=c | A^A,=G A=C=F | 
A=C=F AFA | =F=cF d^A,F | e^A,=F =fFe | d=F=c AF=C | A=F=C ^CEA | eAE eAE | eAE CEA | 
eAE =C=FA | eA=F CEA | eAE eAE | eAE CEA | eAE =C=FA | eA=F CEA | eAE eAE | eAE CEA | 
eAE =C=FA | eA=F CEA | C/E/A/e3/2 z3 | z6 | 
 

